X:1
T:Title
%%score 1 2 { ( 3 6 ) | ( 4 5 ) }
L:1/8
Q:1/4=100
M:4/4
K:A
V:1 treble nm="Akkordion"
V:2 treble nm="Bright Piano"
V:3 treble nm="Grand Piano"
V:6 treble 
V:4 bass 
V:5 bass 
V:1
 A2 E2 A2 E2 | A2 AA B2 B2 | c2 z2 z4 | z8 | c2 BA B2 A2 | z8 | e2 dc d2 c2 | z8 | B2 BB B2 B2 | %9
w: Christian~Gregor * * *|||||||||
 B2 z2 z2 ^dd | e2 AA G2 FF | E2 z2 z4 | z2 e^d e2 BA | G2 EG A2 B2 | c2 z2 z4 | z8 | z2 B2 c2 B2 | %17
w: ||||||||
 z2 B2 c2 B2 | z2 B2 c2 B2 | z4 z2 ^dd |[M:9/8] e3 .E3 z3 |[M:4/4] A2 E2 A2 E2 | A2 AA B2 B2 | %23
w: ||||||
 c2 z2 z4 | z8 | c2 BA B2 A2 | z8 | e2 dc d2 c2 | z8 | B2 BB B2 B2 | B2 z2 z2 ^dd | e2 AA G2 FF | %32
w: |||||||||
 E2 z2 z4 | z2 e^d e2 BA | G2 EG A2 B2 | c2 z2 z4 | z8 | z2 B2 c2 B2 | z2 B2 c2 B2 | z2 B2 c2 B2 | %40
w: ||||||||
 z4 z2 ^dd |[M:9/8] e3 .E3 z3 |[M:4/4] A2 B2 c2 A2 | z8 | c2 d2 e2 c2 | z4 z2 ec | dBcA A2 G2 | %47
w: |||||||
 A8 |] %48
w: |
V:2
 z8 | z8 | A2 E2 A2 E2 | A2 AA B2 B2 | c2 z2 z4 | c2 BA B2 A2 | z8 | e2 dc d2 c2 | z8 | %9
 e2 BB B2 B2 | B2 z2 z2 ^dd | e2 AA G2 FF | E2 z2 z4 | z8 | z2 AG A2 Ed | c2 AB c2 ^d2 | %16
 e2 z2 z2 E2 | e2 B2 z2 E2 | e2 B2 z2 E2 | dBcA B2 ^d2 |[M:9/8] e3 .E3 z3 |[M:4/4] z8 | z8 | %23
 A2 E2 A2 E2 | A2 AA B2 B2 | c2 z2 z4 | c2 BA B2 A2 | z8 | e2 dc d2 c2 | z8 | e2 BB B2 B2 | %31
 B2 z2 z2 ^dd | e2 AA G2 FF | E2 z2 z4 | z8 | z2 AG A2 Ed | c2 AB c2 ^d2 | e2 z2 z2 E2 | %38
 e2 B2 z2 E2 | e2 B2 z2 E2 | dBcA B2 ^d2 |[M:9/8] e3 .E3 z3 |[M:4/4] z8 | B2 c2 d2 B2 | z4 z2 cA | %45
 fdec dBcA | BGAf e2 d2 | c8 |] %48
V:3
 A2 E2 A2 E2 | [A,EA]2 [A,CA][A,CA] [FB]2 [EB]2 | [Ec]2 E2 A2 E2 | [A,EA]2 [A,CA][A,CA] [FB]2 B2 | %4
 c2 [DB]A B2 [CA]2 | c2 [DB]A B2 [CA]2 | [Ae]2 [Gd]c d2 [Ec]2 | [Ae]2 [Gd]c d2 [Ec]2 | %8
 [GB]2 [EGB][EGB] [EGB]2 [^DFB]2 | z4 z2 .[A^d]2 | [EGe]2 [CFA]2 [EG]2 [FA^d][FAd] | %11
 [EGe]2 [CFA]2 [EG]2 [^DF]F | [G,E]2 [Ee][^D^d] [Ee]2 B,-[B,FA] | [B,EG]2 [G,E][EG] [A,EA]2 [EB]2 | %14
 [Ec]2 AG A2 E[EBd] | [EAc]2 [CA][EGB] [EAc]2 [FA^d]2 | [Ge]2 B2 c2 [GB]2 | [Ae]2 [GB]2 c2 [GB]2 | %18
 [Ae]2 [B,GB]2 [Ec]2 [EGB]2 | [Bd][GB][Ac][CA] [EGB]2 [FA^d]2 |[M:9/8] [EGe]3 .[G,E]3 z3 | %21
[M:4/4] [A,A]2 E2 A2 E2 | [A,EA]2 [A,CA][A,CA] [FB]2 [EB]2 | [Ec]2 E2 A2 E2 | %24
 [A,EA]2 [A,CA][A,CA] [FB]2 B2 | c2 [DB]A B2 [CA]2 | c2 [DB]A B2 [CA]2 | [Ae]2 [Gd]c d2 [Ec]2 | %28
 [Ae]2 [Gd]c d2 [Ec]2 | [GB]2 [EGB][EGB] [EGB]2 [^DFB]2 | [EGe]2 [EGB][EGB] [EGB]2 [A^d]d | %31
 [EGe]2 [CFA]2 [EG]2 [FA^d][FAd] | [EGe]2 [CFA]2 [EG]2 [^DF]F | [G,E]2 [Ee][^D^d] [Ee]2 [DB][FA] | %34
 [B,EG]2 [G,E][EG] [A,EA]2 [EB]2 | [Ec]2 AG A2 E[EBd] | [EAc]2 [CA][EGB] [EAc]2 [FA^d]2 | %37
 [Ge]2 B2 c2 [GB]2 | [Ae]2 [GB]2 c2 [GB]2 | [Ae]2 [B,GB]2 [Ec]2 [EGB]2 | %40
 [Bd][GB][Ac][CA] [EGB]2 [FA^d]2 |[M:9/8] [EGe]3 .[G,E]3 z3 |[M:4/4] [A,CA]2 [EB]2 [Ec]2 [CEA]2 | %43
 [EGB]2 [EAc]2 [DBd]2 [EGB]2 | [EAc]2 [DAd]2 [Ge]2 [Ac]A | [df][Bd][ce]c [Bd][GB][Ae][Ac] | %46
 [Bd][GB][Ac][Af] [Ae]2 [Gd]2 | [EAc]8 |] %48
V:4
 [A,,A,]2 E,2 A,2 z D, | C,2 A,,F, [D,A,]2 [E,G,]2 | [A,,A,]2 E,2 A,2 z D, | %3
 C,2 A,,F, [D,A,]2 [E,G,E]2 | [A,E]2 G,[A,C] [E,G,D]2 [A,,A,]2 | [A,E]2 G,[A,C] [E,G,D]2 [A,,A,]2 | %6
 [A,C]2 B,[A,A] [E,G,E]2 [A,,A,]2 | [A,C]2 B,[A,A] [E,G,E]2 [A,,A,]2 | [E,E]2 E,,E,, G,,2 B,,2 | %9
 E,2 E,,E,, G,,2 z A | E,2 A,2 B,2 B,,B,, | E,2 A,2 B,2 z ^D | E,,2 E,^D, E,2 B,,D, | %13
 E,2 z B, C,2 [B,,G,]2 | [A,,A,]2 A,G, A,2 E,G, | A,2 A,,E, A,2 F,2 | %16
 [E,B,]2 [E,G,E]2 [A,E]2 [E,B,]2 | [E,C]2 [E,B,]2 [A,E]2 [E,B,]2 | [E,C]2 E,2 A,2 E,2 | %19
 G,E,A,A,, E,2 B,,2 |[M:9/8] E,3 E,3 D,C,B,, |[M:4/4] z4 z2 E,2 | C,2 A,,F, [D,A,]2 [E,G,]2 | %23
 [A,,A,]2 E,2 A,2 z D, | C,2 A,,F, [D,A,]2 [E,G,E]2 | [A,E]2 G,[A,C] [E,G,D]2 [A,,A,]2 | %26
 [A,E]2 G,[A,C] [E,G,D]2 [A,,A,]2 | [A,C]2 B,[A,A] [E,G,E]2 [A,,A,]2 | %28
 [A,C]2 B,[A,A] [E,G,E]2 [A,,A,]2 | [E,E]2 E,,E,, G,,2 B,,2 | E,2 E,,E,, G,,2 z A | %31
 E,2 A,2 B,2 B,,B,, | E,2 A,2 B,2 z ^D | E,,2 E,^D, E,2 B,,D, | E,2 z B, C,2 [B,,G,]2 | %35
 [A,,A,]2 A,G, A,2 E,G, | A,2 A,,E, A,2 F,2 | [E,B,]2 [E,G,E]2 [A,E]2 [E,B,]2 | %38
 [E,C]2 [E,B,]2 [A,E]2 [E,B,]2 | [E,C]2 E,2 A,2 E,2 | G,E,A,A,, E,2 B,,2 |[M:9/8] E,3 E,3 D,C,B,, | %42
[M:4/4] A,,2 [E,G,]2 A,2 A,,2 | E,2 C,2 B,,2 E,2 | A,2 F,2 [E,B,]2 z C | DF z A [E,E]2 [A,,C]2 | %46
 B,DA,,^D, B,2 E2 | A,,8 |] %48
V:5
 z4 z2 E,2 | x8 | z4 z2 E,2 | x8 | z2 A,,2 z4 | z2 A,,2 z4 | z2 A,,2 z4 | z2 A,,2 z4 | x8 | %9
 z4 z2 B,,2 | x8 | z4 z2 [B,,A,]2 | x8 | z2 D,2 z4 | x8 | x8 | x8 | x8 | x8 | x8 |[M:9/8] x9 | %21
[M:4/4] A,,2 E,2 A,2 z D, | x8 | z4 z2 E,2 | x8 | z2 A,,2 z4 | z2 A,,2 z4 | z2 A,,2 z4 | %28
 z2 A,,2 z4 | x8 | z4 z2 B,,2 | x8 | z4 z2 [B,,A,]2 | x8 | z2 D,2 z4 | x8 | x8 | x8 | x8 | x8 | %40
 x8 |[M:9/8] x9 |[M:4/4] x8 | x8 | z4 z2 A,2 | D,2 A,,2 z4 | E,2 z2 E,4 | x8 |] %48
V:6
 x8 | x8 | x8 | x8 | x8 | x8 | x8 | x8 | x8 | [EGe]2 [EGB][EGB] [EGB]2 F-[F^d] | x8 | x8 | %12
 z4 z2 .[^DB]2 | x8 | x8 | x8 | x8 | x8 | x8 | E4 z4 |[M:9/8] x9 |[M:4/4] x8 | x8 | x8 | x8 | x8 | %26
 x8 | x8 | x8 | x8 | z4 z2 F2 | x8 | x8 | z4 z2 B,2 | x8 | x8 | x8 | x8 | x8 | x8 | E4 z4 | %41
[M:9/8] x9 |[M:4/4] x8 | x8 | x8 | z2 E2 z4 | z2 C2 z4 | x8 |] %48

